!!!OTL: ES SASS EIN KAEFER AUF DEM BAEUMEL
!!!ARE: Europa, Mitteleuropa, Deutschland, Breslau
!!!SCT: E0164A
!!!YEM: Copyright 1995, estate of Helmut Schaffrath.
**kern
*ICvox
*Ivox
*M3/4
*k[f#]
*G:
{4d
=1
8g
8f#
8g
8f#
8g
8f#
=2
4g
4d
4f#
=3
4g
4r}
{4g
=4
8dd
8cc#
8dd
8cc#
8dd
8cc#
=5
4dd
4a}
{4b
=6
8cc
8b
4cc
8b
8a
=7
4a
4g
4d
=8
4g
4r}
==
!!!AGN: erzaehlendes Volks - Lied, Sage, Tier - Maerchen, Scherz, Ballade ?
!!!ONB: ESAC (Essen Associative Code) Database: ERK1
!!!AMT: simple triple
!!!AIN: vox
!!!EED: Helmut Schaffrath
!!!EEV: 1.0
*-
